dist/icons/eye.svg

<svg width="35" height="35" viewBox="0 0 35 35" fill="none" xmlns="http://www.w3.org/2000/svg">
<path d="M17.4999 6.5625C10.2083 6.5625 3.98117 11.0979 1.45825 17.5C3.98117 23.9021 10.2083 28.4375 17.4999 28.4375C24.7916 28.4375 31.0187 23.9021 33.5416 17.5C31.0187 11.0979 24.7916 6.5625 17.4999 6.5625ZM17.4999 24.7917C13.4749 24.7917 10.2083 21.525 10.2083 17.5C10.2083 13.475 13.4749 10.2083 17.4999 10.2083C21.5249 10.2083 24.7916 13.475 24.7916 17.5C24.7916 21.525 21.5249 24.7917 17.4999 24.7917ZM17.4999 13.125C15.0791 13.125 13.1249 15.0792 13.1249 17.5C13.1249 19.9208 15.0791 21.875 17.4999 21.875C19.9208 21.875 21.8749 19.9208 21.8749 17.5C21.8749 15.0792 19.9208 13.125 17.4999 13.125Z" fill="black" fill-opacity="0.8"/>
</svg>

<svg width="35" height="35" fill="none" xmlns="http://www.w3.org/2000/svg"><path d="M17.5 6.563c-7.292 0-13.519 4.535-16.042 10.937 2.523 6.402 8.75 10.938 16.042 10.938 7.292 0 13.519-4.536 16.042-10.938-2.523-6.402-8.75-10.938-16.042-10.938zm0 18.229a7.294 7.294 0 01-7.292-7.292 7.294 7.294 0 017.292-7.292 7.294 7.294 0 017.292 7.292 7.294 7.294 0 01-7.292 7.292zm0-11.667a4.37 4.37 0 00-4.375 4.375 4.37 4.37 0 004.375 4.375 4.37 4.37 0 004.375-4.375 4.37 4.37 0 00-4.375-4.375z" fill="#000" fill-opacity=".8"/></svg>
